svg/furkot/freepik/officebuilding.svg

<svg viewBox="0 0 512 512" xmlns="http://www.w3.org/2000/svg"><path d="m453.993 472.389h-21.365v-80.709-87.831-85.458c0-10.682-9.495-20.177-20.177-20.177h-41.543c-9.495-43.916-47.476-77.149-96.14-85.458v-15.429h67.654c10.683 0 20.179-8.309 20.179-20.178v-43.916c0-10.682-9.496-20.177-20.179-20.177h-68.839c-2.374-7.121-9.496-13.056-18.992-13.056-10.682 0-20.177 9.495-20.177 20.177v92.579c-48.664 7.122-87.832 41.542-96.14 85.458h-41.542c-10.682 0-20.177 9.495-20.177 20.177v85.458 87.831 80.709h-18.991c-10.682 0-20.177 8.308-20.177 20.178s9.495 20.178 20.177 20.178h397.615c10.683 0 20.178-9.496 20.178-20.178 0-10.683-9.495-20.178-21.364-20.178zm-230.261-233.82h64.093v45.102h-64.093zm0 173.288h64.093v45.103h-64.093zm103.261 0h65.279v45.103h-65.279zm66.467-40.355h-66.467v-48.664h65.279v48.664zm-105.636-48.663v48.664h-64.093v-48.664zm-103.26 48.663h-65.28v-48.664h65.28zm-66.467 40.355h66.467v45.103h-65.28v-45.103zm275.363-128.186h-66.467v-45.102h65.279v45.102zm-275.363-45.102h66.467v45.102h-65.28v-45.102z"/></svg>

<svg xmlns="http://www.w3.org/2000/svg" viewBox="0 0 512 512"><path d="M453.993 472.389H432.628V391.68L432.628 391.68V303.849L432.628 303.849V218.391C432.628 207.709 423.133 198.214 412.451 198.214H370.908C361.413 154.298 323.432 121.065 274.768 112.756V97.327H342.422C353.105 97.327 362.601 89.018 362.601 77.149V33.233C362.601 22.551 353.105 13.056 342.422 13.056H273.583C271.209 5.935 264.087 0 254.591 0 243.909 0 234.414 9.495 234.414 20.177V112.756C185.75 119.878 146.582 154.298 138.274 198.214H96.732C86.05 198.214 76.555 207.709 76.555 218.391V303.849L76.555 303.849V391.68L76.555 391.68V472.389H57.564C46.882 472.389 37.387 480.697 37.387 492.567S46.882 512.745 57.564 512.745H455.179C465.862 512.745 475.357 503.249 475.357 492.567 475.357 481.884 465.862 472.389 453.993 472.389ZM223.732 238.569H287.825V283.671H223.732V238.569ZM223.732 411.857H287.825V456.96H223.732V411.857ZM326.993 411.857H392.272V456.96H326.993V411.857ZM393.46 371.502H326.993V322.838H392.272V371.502H393.46ZM287.824 322.839V371.503H223.731V322.839H287.824ZM184.564 371.502H119.284V322.838H184.564V371.502ZM118.097 411.857H184.564V456.96H119.284V411.857H118.097ZM393.46 283.671H326.993V238.569H392.272V283.671H393.46ZM118.097 238.569H184.564V283.671H119.284V238.569H118.097Z"/></svg>
